Images/storyboard.svg

<svg fill="none" height="70" viewBox="0 0 70 70" width="70" xmlns="http://www.w3.org/2000/svg"><g fill="#b30000"><path d="m70 9.13287v-5.70804h-27.2222v-3.42483h-15.5556v3.42483h-27.2222v5.70804h3.88889v31.96503h-3.88889v5.708h20.2378l-8.505 22.4715 2.4591.7226 8.7798-23.1941h10.732v22.8322h2.5926v-22.8322h10.732l8.7785 23.193 2.4591-.7227-8.5037-22.4703h20.2378v-5.708h-3.8889v-31.96503zm-40.1852-6.84965h10.3704v1.14161h-10.3704zm-27.22221 4.56643v-1.14161h24.62961 15.5556 24.6296v1.14161h-1.2963-62.22221zm64.81481 36.53145v1.1416h-31.1111-2.5926-31.11111v-1.1416h1.2963 62.22221zm-3.8889-2.2832h-57.03702v-31.96503h57.03702z"/><path d="m33.7036 26.257h-24.62963v12.5576h24.62963zm-2.5926 10.2744h-19.4444v-7.9912h19.4444z"/><path d="m36.2964 38.8146h24.6296v-12.5576h-24.6296zm2.5926-10.2744h19.4444v7.9912h-19.4444z"/><path d="m24.6295 11.4161h-15.55553v12.5577h15.55553zm-2.5926 10.2745h-10.3703v-7.9912h10.3703z"/><path d="m42.7777 11.4161h-15.5555v12.5577h15.5555zm-2.5926 10.2745h-10.3703v-7.9912h10.3703z"/><path d="m60.9259 11.4161h-15.5555v12.5577h15.5555zm-2.5926 10.2745h-10.3703v-7.9912h10.3703z"/></g></svg>

<svg width="70" height="70" viewBox="0 0 70 70" fill="none" xmlns="http://www.w3.org/2000/svg">
<path d="M70 9.13287V3.42483H42.7778V0H27.2222V3.42483H0V9.13287H3.88889V41.0979H0V46.8059H20.2378L11.7328 69.2774L14.1919 70L22.9717 46.8059H33.7037V69.6381H36.2963V46.8059H47.0283L55.8068 69.9989L58.2659 69.2762L49.7622 46.8059H70V41.0979H66.1111V9.13287H70ZM29.8148 2.28322H40.1852V3.42483H29.8148V2.28322ZM2.59259 6.84965V5.70804H27.2222H42.7778H67.4074V6.84965H66.1111H3.88889H2.59259ZM67.4074 43.3811V44.5227H36.2963H33.7037H2.59259V43.3811H3.88889H66.1111H67.4074ZM63.5185 41.0979H6.48148V9.13287H63.5185V41.0979Z" fill="#B30000"/>
<path d="M33.7036 26.257H9.07397V38.8146H33.7036V26.257ZM31.111 36.5314H11.6666V28.5402H31.111V36.5314Z" fill="#B30000"/>
<path d="M36.2964 38.8146H60.926V26.257H36.2964V38.8146ZM38.889 28.5402H58.3334V36.5314H38.889V28.5402Z" fill="#B30000"/>
<path d="M24.6295 11.4161H9.07397V23.9738H24.6295V11.4161ZM22.0369 21.6906H11.6666V13.6994H22.0369V21.6906Z" fill="#B30000"/>
<path d="M42.7777 11.4161H27.2222V23.9738H42.7777V11.4161ZM40.1851 21.6906H29.8148V13.6994H40.1851V21.6906Z" fill="#B30000"/>
<path d="M60.9259 11.4161H45.3704V23.9738H60.9259V11.4161ZM58.3333 21.6906H47.963V13.6994H58.3333V21.6906Z" fill="#B30000"/>
</svg>
